X:1
T:Title
%%score 1 { 2 | 3 }
L:1/8
Q:1/4=70
M:3/4
K:C
V:1 treble nm="Drawbar Organ, Soprano"
V:2 treble nm="Church Organ, Tell It to Jesus (Crosby)"
V:3 bass 
V:1
 (3[EG][EG][EG] [EG]2 [DF]2 | (3[DF][DF][DF] [DF]2 [CE]2 | (3[FA][FA][FA] G2 [Ec]2 | %3
w: By~William~Howard~Doane * * * *|||
 (3[FB][FA][FB] [Ec]4- |[M:4/4] [Ec]2 [DF]/[DF]/[DF] [DF]2 [B,D]2- | %5
w: ||
 [B,D]2 [CE]/[CE]/[CE] [CE]2 [EG]2- | [EG]2 [FA]/[FA]/[FA] G2 [Ec]2- | %7
w: ||
 [Ec]2 [FB]2- [FB][FA] [FG]2 | [B,F]2 [CE]6 |] %9
w: ||
V:2
 (3CCC C2 B,2 | (3B,B,B, G,2 G,2 | (3CCC C2 G,2 | (3DDD[K:bass] G,4- | %4
[M:4/4] G,2 G,/G,/G, G,2 G,2- | G,2 G,/G,/G, G,2[K:treble] C2- | C2 C/C/C C2[K:bass] G,2- | %7
 G,2 D2- DD B,2 | G,2 G,6 |] %9
V:3
 (3C,C,C, C,2 [G,,G,]2 | (3G,,G,,G,, C,2 C,2 | (3F,F,F, E,2 C,2 | (3G,G,G,, C,4- | %4
[M:4/4] C,2 G,,/G,,/G,, G,,2 G,,2- | G,,2 C,/C,/C, C,2 C,2- | C,2 F,/F,/F, F,2 C,2- | %7
 C,2 G,2- G,G, G,,2 | G,,2 C,6 |] %9

